X: 1863
T: The Sea Shells Schottische
B: australian traditional tunes wiki
M:4/4
L:1/8
R: Schottische
Q: 1/4=100
K:D
V:1 
AA||"D"d2d>f f>a a>f|"G"g2g>g"Em"B2B>A-|"D"d2d>d (3dfa a>f|"E"e2e2e2A>A-|
"D"d2d>e (3fgf e>f|"G"g2g2"Em"B2 B>B|"A"{B}c2 (3cdB A2 c>e|"D"d2d2d2A>A-|
"D"d2d>f-a2b>a|"G"g2g2"Em"B2B>A|"D"{A/}d2d>f {f/}a2a>f|"A"e2e2e2A>A-|
"D"d2d>e (3fgf e>f|"G"g2g2"Em"B2B>A|"A"c2c>B A2c<A|"G"{A/}d2d2d2c>d||
|:"A"e>e e>e e>e a>g|"D"f2f>ed2d>c|"G"B>B B>B "Em"g>f e>d|"A"c2c2c2(3cBA|
"D"d2d>f f>a a>f|"G"g2g2"Em"B2B>B|"A"c2c>BA2c>e|"D"d2d2d2c>d:|
% abcbook-tune_id 6342d53a9c813694ad56281a


% abcbook-boost 0
% abcbook-tablature 
% abcbook-transpose 
% abcbook-lastupdated 1665324388849
% abcbook-soundfonts 
% abcbook-repeats 1
% NFF Book 2006

